site/static/docs/images/icons/monitoring.svg

<svg fill="none" height="26" viewBox="0 0 26 26" width="26" xmlns="http://www.w3.org/2000/svg"><g fill="#0075ff"><circle cx="13" cy="13" opacity=".15" r="13"/><path clip-rule="evenodd" d="m6.75 5c-.9665 0-1.75.7835-1.75 1.75v12.5c0 .9665.7835 1.75 1.75 1.75h12.5c.9665 0 1.75-.7835 1.75-1.75v-12.5c0-.9665-.7835-1.75-1.75-1.75zm-.25 1.75c0-.13807.11193-.25.25-.25h12.5c.1381 0 .25.11193.25.25v12.5c0 .1381-.1119.25-.25.25h-12.5c-.13807 0-.25-.1119-.25-.25zm10.25 1.25c-.4142 0-.75.33579-.75.75v7.5c0 .4142.3358.75.75.75s.75-.3358.75-.75v-7.5c0-.41421-.3358-.75-.75-.75zm-8.25.75c0-.41421.33579-.75.75-.75s.75.33579.75.75v5.5c0 .4142-.33579.75-.75.75s-.75-.3358-.75-.75zm4.5-.75c-.4142 0-.75.33579-.75.75v3.5c0 .4142.3358.75.75.75s.75-.3358.75-.75v-3.5c0-.41421-.3358-.75-.75-.75z" fill-rule="evenodd"/></g></svg>

<svg width="26" height="26" viewBox="0 0 26 26" fill="none" xmlns="http://www.w3.org/2000/svg">
<circle opacity="0.15" cx="13" cy="13" r="13" fill="#0075ff"/>
<path fill-rule="evenodd" clip-rule="evenodd" d="M6.75 5C5.7835 5 5 5.7835 5 6.75V19.25C5 20.2165 5.7835 21 6.75 21H19.25C20.2165 21 21 20.2165 21 19.25V6.75C21 5.7835 20.2165 5 19.25 5H6.75ZM6.5 6.75C6.5 6.61193 6.61193 6.5 6.75 6.5H19.25C19.3881 6.5 19.5 6.61193 19.5 6.75V19.25C19.5 19.3881 19.3881 19.5 19.25 19.5H6.75C6.61193 19.5 6.5 19.3881 6.5 19.25V6.75ZM16.75 8C16.3358 8 16 8.33579 16 8.75V16.25C16 16.6642 16.3358 17 16.75 17C17.1642 17 17.5 16.6642 17.5 16.25V8.75C17.5 8.33579 17.1642 8 16.75 8ZM8.5 8.75C8.5 8.33579 8.83579 8 9.25 8C9.66421 8 10 8.33579 10 8.75V14.25C10 14.6642 9.66421 15 9.25 15C8.83579 15 8.5 14.6642 8.5 14.25V8.75ZM13 8C12.5858 8 12.25 8.33579 12.25 8.75V12.25C12.25 12.6642 12.5858 13 13 13C13.4142 13 13.75 12.6642 13.75 12.25V8.75C13.75 8.33579 13.4142 8 13 8Z" fill="#0075ff"/>
</svg>
